tools/download-figma-icons/icons/outlined-large/district-heating.svg

<svg width="64" height="64" viewBox="0 0 64 64" fill="none" xmlns="http://www.w3.org/2000/svg">
<path d="M21 19.2497C21 20.8297 20.38 21.5897 19.59 22.5397C19.06 23.1797 19.16 24.1197 19.79 24.6497C20.07 24.8797 20.41 24.9897 20.74 24.9897C21.17 24.9897 21.6 24.7997 21.9 24.4397C22.78 23.3697 23.99 21.8997 23.99 19.2397C23.99 16.5797 22.83 15.1597 21.9 14.0197C21.08 13.0297 20.49 12.3097 20.49 10.7297C20.49 9.14971 20.99 8.53971 21.81 7.54971L21.9 7.43971C22.43 6.79971 22.33 5.85971 21.69 5.32971C21.05 4.79971 20.1 4.89971 19.58 5.53971L19.49 5.64971C18.55 6.78971 17.49 8.07971 17.49 10.7397C17.49 13.3997 18.65 14.8097 19.58 15.9397C20.4 16.9397 20.99 17.6497 20.99 19.2497H21Z" fill="black"/>
<path d="M32.5 19.2502C32.5 20.7002 31.9 21.4202 30.91 22.4702C30.34 23.0702 30.37 24.0202 30.97 24.5902C31.26 24.8602 31.63 25.0002 32 25.0002C32.4 25.0002 32.8 24.8402 33.09 24.5302C34.11 23.4502 35.5 21.9702 35.5 19.2602C35.5 16.5502 34.16 15.1102 33.09 13.9702C32.17 12.9902 31.5 12.2802 31.5 10.7502C31.5 9.22025 32.06 8.63025 32.99 7.64025L33.1 7.53025C33.67 6.93025 33.64 5.98025 33.03 5.41025C32.43 4.84025 31.48 4.87025 30.91 5.48025L30.81 5.59025C29.73 6.74025 28.51 8.04025 28.51 10.7502C28.51 13.4602 29.84 14.8802 30.91 16.0202C31.84 17.0102 32.51 17.7202 32.51 19.2602L32.5 19.2502Z" fill="black"/>
<path d="M43.5 19.2502C43.5 20.7002 42.9 21.4202 41.91 22.4702C41.34 23.0702 41.37 24.0202 41.97 24.5902C42.26 24.8602 42.63 25.0002 43 25.0002C43.4 25.0002 43.8 24.8402 44.09 24.5302C45.11 23.4502 46.5 21.9702 46.5 19.2602C46.5 16.5502 45.16 15.1102 44.09 13.9702C43.17 12.9902 42.5 12.2802 42.5 10.7502C42.5 9.22025 43.06 8.63025 43.99 7.64025L44.1 7.53025C44.67 6.93025 44.64 5.98025 44.03 5.41025C43.43 4.84025 42.48 4.87025 41.91 5.48025L41.81 5.59025C40.73 6.74025 39.51 8.04025 39.51 10.7502C39.51 13.4602 40.84 14.8802 41.91 16.0202C42.84 17.0102 43.51 17.7202 43.51 19.2602L43.5 19.2502Z" fill="black"/>
<path d="M61.3 29H57.7C56.21 29 55 30.21 55 31.71V33.5H9V31.71C9 30.22 7.79 29 6.3 29H2.7C1.21 29 0 30.21 0 31.71V57.29C0 58.78 1.21 60 2.7 60H6.3C7.79 60 9 58.79 9 57.29V55.5H55V57.29C55 58.78 56.21 60 57.7 60H61.3C62.79 60 64 58.79 64 57.29V31.71C64 30.22 62.79 29 61.3 29ZM6 57H3V32H6V57ZM9 52.5V36.5H55V52.5H9ZM61 57H58V32H61V57Z" fill="black"/>
</svg>

<svg xmlns="http://www.w3.org/2000/svg" width="64" height="64" fill="none" viewBox="0 0 64 64"><path fill="currentColor" d="M21 19.25c0 1.58-.62 2.34-1.41 3.29-.53.64-.43 1.58.2 2.11a1.497 1.497 0 0 0 2.11-.21c.88-1.07 2.09-2.54 2.09-5.2s-1.16-4.08-2.09-5.22c-.82-.99-1.41-1.71-1.41-3.29s.5-2.19 1.32-3.18l.09-.11c.53-.64.43-1.58-.21-2.11s-1.59-.43-2.11.21l-.09.11c-.94 1.14-2 2.43-2 5.09s1.16 4.07 2.09 5.2c.82 1 1.41 1.71 1.41 3.31zm11.5 0c0 1.45-.6 2.17-1.59 3.22a1.5 1.5 0 0 0 2.18 2.06c1.02-1.08 2.41-2.56 2.41-5.27s-1.34-4.15-2.41-5.29c-.92-.98-1.59-1.69-1.59-3.22s.56-2.12 1.49-3.11l.11-.11c.57-.6.54-1.55-.07-2.12-.6-.57-1.55-.54-2.12.07l-.1.11c-1.08 1.15-2.3 2.45-2.3 5.16s1.33 4.13 2.4 5.27c.93.99 1.6 1.7 1.6 3.24zm11 0c0 1.45-.6 2.17-1.59 3.22a1.5 1.5 0 0 0 2.18 2.06c1.02-1.08 2.41-2.56 2.41-5.27s-1.34-4.15-2.41-5.29c-.92-.98-1.59-1.69-1.59-3.22s.56-2.12 1.49-3.11l.11-.11c.57-.6.54-1.55-.07-2.12-.6-.57-1.55-.54-2.12.07l-.1.11c-1.08 1.15-2.3 2.45-2.3 5.16s1.33 4.13 2.4 5.27c.93.99 1.6 1.7 1.6 3.24zM61.3 29h-3.6c-1.49 0-2.7 1.21-2.7 2.71v1.79H9v-1.79A2.71 2.71 0 0 0 6.3 29H2.7C1.21 29 0 30.21 0 31.71v25.58A2.71 2.71 0 0 0 2.7 60h3.6C7.79 60 9 58.79 9 57.29V55.5h46v1.79A2.71 2.71 0 0 0 57.7 60h3.6c1.49 0 2.7-1.21 2.7-2.71V31.71A2.71 2.71 0 0 0 61.3 29M6 57H3V32h3zm3-4.5v-16h46v16zM61 57h-3V32h3z"/></svg>
